assets/images/trop/zuch/sportowe_i_turystyczne_mistrzowie_gier_podworkowych.svg

<svg xmlns="http://www.w3.org/2000/svg" viewBox="0 0 105.48 94.04"><path d="M52.74,92.49a8.54,8.54,0,0,1-7.47-4.31L2.72,14.48A8.63,8.63,0,0,1,10.19,1.54h85.1a8.63,8.63,0,0,1,7.47,12.94L60.21,88.18a8.54,8.54,0,0,1-7.47,4.31" fill="#5d2f88"/><path d="M95.29,3.09a7.08,7.08,0,0,1,6.13,10.62L58.87,87.41a7.08,7.08,0,0,1-12.26,0L4.06,13.71A7.08,7.08,0,0,1,10.19,3.09h85.1m0-3.09H10.19A10.17,10.17,0,0,0,1.38,15.25L43.93,89a10.16,10.16,0,0,0,17.61,0l42.56-73.7A10.17,10.17,0,0,0,95.29,0" fill="#382259"/><circle cx="52.6" cy="20.28" r="12.32" fill="#26b4e6"/><path d="M52.6,32.61A12.33,12.33,0,1,1,52.6,8Z" fill="#f0ae00"/><path d="M47.31 64.32h10.91v10.91H47.31z" fill="#26b4e6"/><path d="M52.56 42.5h10.91v10.91H52.56z" fill="#f0ae00"/><path d="M42.06 42.5h10.91v10.91H42.06z" fill="#26b4e6"/><path d="M59.14 30.71a12.32 12.32 0 1 0-12.76.21v10.66h-5.25v12.76h5.25v21.82h12.76V54.34h5.25V41.58h-5.25zm3.93-10.43a10.49 10.49 0 0 1-9.19 10.39h-.36V9.86a10.48 10.48 0 0 1 9.55 10.42zm-21 0a10.48 10.48 0 0 1 9.6-10.42v20.81h-.36a10.49 10.49 0 0 1-9.19-10.39zm6.12 12.24h9v9.06h-9zM43 52.49v-9.06h8.64v9.06H43zM57.29 74.3h-9v-9h9zm0-10.91h-9v-9h9zm5.25-20v9.06h-8.65v-9.02h8.65z" fill="#fff"/></svg>

<svg id="Warstwa_1" data-name="Warstwa 1" xmlns="http://www.w3.org/2000/svg" viewBox="0 0 105.48 94.04"><defs><style>.cls-1{fill:#5d2f88;}.cls-2{fill:#382259;}.cls-3{fill:#26b4e6;}.cls-4{fill:#f0ae00;}.cls-5{fill:none;}.cls-6{fill:#fff;}</style></defs><title>tropy-zuchowe-znaczki-popr-krz</title><path class="cls-1" d="M52.74,92.49a8.54,8.54,0,0,1-7.47-4.31L2.72,14.48A8.63,8.63,0,0,1,10.19,1.54h85.1a8.63,8.63,0,0,1,7.47,12.94L60.21,88.18a8.54,8.54,0,0,1-7.47,4.31"/><path class="cls-2" d="M95.29,3.09a7.08,7.08,0,0,1,6.13,10.62L58.87,87.41a7.08,7.08,0,0,1-12.26,0L4.06,13.71A7.08,7.08,0,0,1,10.19,3.09h85.1m0-3.09H10.19A10.17,10.17,0,0,0,1.38,15.25L43.93,89a10.16,10.16,0,0,0,17.61,0l42.56-73.7A10.17,10.17,0,0,0,95.29,0"/><circle class="cls-3" cx="52.6" cy="20.28" r="12.32"/><path class="cls-4" d="M52.6,32.61A12.33,12.33,0,1,1,52.6,8Z"/><rect class="cls-3" x="47.31" y="64.32" width="10.91" height="10.91"/><rect class="cls-4" x="52.56" y="42.5" width="10.91" height="10.91"/><rect class="cls-3" x="42.06" y="42.5" width="10.91" height="10.91"/><path class="cls-5" d="M53.89,41.58h3.4V32.52H54a10.89,10.89,0,0,1-1.41.09,11.16,11.16,0,0,1-1.42-.09H48.24v9.06h5.65Z"/><polygon class="cls-5" points="51.63 52.49 51.63 43.43 46.38 43.43 42.99 43.43 42.99 52.49 46.38 52.49 46.38 52.49 51.63 52.49"/><path class="cls-5" d="M51.67,30.67V9.86a10.46,10.46,0,0,0-.36,20.81Z"/><path class="cls-5" d="M53.52,30.67h.36a10.46,10.46,0,0,0-.36-20.81Z"/><rect class="cls-5" x="48.24" y="65.25" width="9.06" height="9.06"/><polygon class="cls-5" points="51.63 54.34 48.23 54.34 48.23 63.39 57.29 63.39 57.29 54.34 53.89 54.34 51.63 54.34"/><polygon class="cls-5" points="53.89 52.49 59.14 52.49 59.14 52.49 62.54 52.49 62.54 43.43 59.14 43.43 53.89 43.43 53.89 52.49"/><path class="cls-6" d="M59.14,30.71a12.32,12.32,0,1,0-12.76.21V41.58H41.13V54.34h5.25V76.16H59.14V54.34h5.25V41.58H59.14Zm3.93-10.43a10.49,10.49,0,0,1-9.19,10.39h-.36V9.86A10.48,10.48,0,0,1,63.07,20.28Zm-21,0A10.48,10.48,0,0,1,51.67,9.86V30.67h-.36A10.49,10.49,0,0,1,42.12,20.28Zm6.12,12.24h9v9.06h-9ZM43,52.49V43.43h8.64v9.06H43ZM57.29,74.3h-9v-9h9Zm0-10.91h-9v-9h9Zm5.25-20v9.06H53.89V43.43h8.65Z"/></svg>
